img/advantages-7.svg

<svg width="67" height="66" viewBox="0 0 67 66" fill="none" xmlns="http://www.w3.org/2000/svg">
<path d="M60.5094 61.5527H6.49062C2.91816 61.5527 0 58.691 0 55.159V10.841C0 7.30898 2.91816 4.44727 6.49062 4.44727H41.9404C42.9611 4.44727 43.7855 5.25937 43.7855 6.26484C43.7855 7.27031 42.9611 8.08242 41.9404 8.08242H6.49062C4.94648 8.08242 3.69023 9.31992 3.69023 10.841V55.159C3.69023 56.6801 4.94648 57.9176 6.49062 57.9176H60.5094C62.0535 57.9176 63.3098 56.6801 63.3098 55.159V10.841C63.3098 9.31992 62.0535 8.08242 60.5094 8.08242H52.5793C51.5586 8.08242 50.7342 7.27031 50.7342 6.26484C50.7342 5.25937 51.5586 4.44727 52.5793 4.44727H60.5094C64.0949 4.44727 67 7.32187 67 10.841V55.159C67 58.691 64.0818 61.5527 60.5094 61.5527Z" fill="#2D527C"/>
<path d="M53.8748 53.5348H18.1371C17.1164 53.5348 16.292 52.7227 16.292 51.7172C16.292 50.7117 17.1164 49.8996 18.1371 49.8996H53.8748C54.5814 49.8996 55.1572 49.3324 55.1572 48.6363V17.3766C55.1572 16.6805 54.5814 16.1133 53.8748 16.1133H18.1371C17.1164 16.1133 16.292 15.3012 16.292 14.2957C16.292 13.2902 17.1164 12.4781 18.1371 12.4781H53.8748C56.6229 12.4781 58.8605 14.6824 58.8605 17.3894V48.6363C58.8605 51.3305 56.6229 53.5348 53.8748 53.5348Z" fill="#2D527C"/>
<path d="M9.98458 53.5348C8.96388 53.5348 8.13947 52.7227 8.13947 51.7172V14.2828C8.13947 13.2774 8.96388 12.4652 9.98458 12.4652C11.0053 12.4652 11.8297 13.2774 11.8297 14.2828V51.7172C11.8428 52.7227 11.0053 53.5348 9.98458 53.5348Z" fill="#2D527C"/>
<path d="M42.6733 47.502C34.56 47.502 27.9516 40.9922 27.9516 33C27.9516 25.0078 34.56 18.498 42.6733 18.498C50.7866 18.498 57.395 25.0078 57.395 33C57.395 40.9922 50.7866 47.502 42.6733 47.502ZM42.6733 22.1332C36.5883 22.1332 31.6418 27.0059 31.6418 33C31.6418 38.9941 36.5883 43.8668 42.6733 43.8668C48.7582 43.8668 53.7047 38.9941 53.7047 33C53.7047 27.0059 48.7582 22.1332 42.6733 22.1332ZM42.6733 39.5613C38.9961 39.5613 36.0125 36.6223 36.0125 33C36.0125 29.3777 38.9961 26.4387 42.6733 26.4387C46.3504 26.4387 49.334 29.3777 49.334 33C49.334 36.6223 46.3504 39.5613 42.6733 39.5613ZM42.6733 30.0738C41.0375 30.0738 39.7028 31.3887 39.7028 33C39.7028 34.6113 41.0375 35.9262 42.6733 35.9262C44.309 35.9262 45.6438 34.6113 45.6438 33C45.6438 31.3887 44.309 30.0738 42.6733 30.0738Z" fill="#F0BF5F"/>
<path d="M18.124 39.7805H9.98456V45.6715H18.124V39.7805Z" fill="#CEE8FA"/>
<path d="M18.1371 47.4891H9.98458C8.96388 47.4891 8.13947 46.677 8.13947 45.6715V39.7805C8.13947 38.775 8.96388 37.9629 9.98458 37.9629H18.124C19.1447 37.9629 19.9692 38.775 19.9692 39.7805V45.6715C19.9822 46.677 19.1578 47.4891 18.1371 47.4891ZM11.8428 43.8539H16.292V41.598H11.8428V43.8539Z" fill="#2D527C"/>
<path d="M18.124 20.3285H9.98456V26.2195H18.124V20.3285Z" fill="#CEE8FA"/>
<path d="M18.1371 28.0371H9.98458C8.96388 28.0371 8.13947 27.225 8.13947 26.2195V20.3285C8.13947 19.323 8.96388 18.5109 9.98458 18.5109H18.124C19.1447 18.5109 19.9692 19.323 19.9692 20.3285V26.2195C19.9822 27.225 19.1578 28.0371 18.1371 28.0371ZM11.8428 24.4019H16.292V22.1461H11.8428V24.4019Z" fill="#2D527C"/>
<path d="M33.9842 43.377C33.5131 43.377 33.042 43.1965 32.6756 42.8484C31.9559 42.1395 31.9559 40.9793 32.6756 40.2703L37.9623 35.0625C38.682 34.3535 39.8598 34.3535 40.5795 35.0625C41.2992 35.7715 41.2992 36.9316 40.5795 37.6406L35.2928 42.8484C34.9264 43.1965 34.4553 43.377 33.9842 43.377Z" fill="#F0BF5F"/>
<path d="M46.4158 31.1308C45.9447 31.1308 45.4736 30.9504 45.1072 30.6023C44.3875 29.8933 44.3875 28.7332 45.1072 28.0242L50.0537 23.1516C50.7734 22.4426 51.9512 22.4426 52.6709 23.1516C53.3906 23.8605 53.3906 25.0207 52.6709 25.7297L47.7244 30.6023C47.3711 30.9504 46.8869 31.1308 46.4158 31.1308Z" fill="#F0BF5F"/>
<path d="M38.8391 31.0406C38.368 31.0406 37.8969 30.8601 37.5305 30.5121L32.6756 25.7297C31.9559 25.0207 31.9559 23.8605 32.6756 23.1516C33.3953 22.4426 34.5731 22.4426 35.2928 23.1516L40.1477 27.934C40.8674 28.643 40.8674 29.8031 40.1477 30.5121C39.7944 30.873 39.3102 31.0406 38.8391 31.0406Z" fill="#F0BF5F"/>
<path d="M51.3623 43.3769C50.8912 43.3769 50.4201 43.1965 50.0537 42.8484L45.1334 38.0016C44.4137 37.2926 44.4137 36.1324 45.1334 35.4234C45.8531 34.7144 47.0309 34.7144 47.7506 35.4234L52.6709 40.2703C53.3906 40.9793 53.3906 42.1394 52.6709 42.8484C52.3045 43.1965 51.8334 43.3769 51.3623 43.3769Z" fill="#F0BF5F"/>
</svg>

<svg width="67" height="66" fill="none" xmlns="http://www.w3.org/2000/svg"><path d="M60.51 61.553H6.49C2.919 61.553 0 58.69 0 55.159V10.841c0-3.532 2.918-6.394 6.49-6.394h35.45c1.021 0 1.846.812 1.846 1.818 0 1.005-.825 1.817-1.846 1.817H6.49c-1.544 0-2.8 1.238-2.8 2.759v44.318c0 1.521 1.256 2.759 2.8 2.759h54.02c1.544 0 2.8-1.238 2.8-2.759V10.841c0-1.521-1.257-2.759-2.8-2.759h-7.93c-1.021 0-1.846-.812-1.846-1.817 0-1.006.825-1.818 1.845-1.818h7.93c3.586 0 6.491 2.875 6.491 6.394v44.318c0 3.532-2.918 6.394-6.49 6.394Z" fill="#2D527C"/><path d="M53.875 53.535H18.137c-1.02 0-1.845-.812-1.845-1.818 0-1.005.824-1.817 1.845-1.817h35.738c.706 0 1.282-.568 1.282-1.264v-31.26c0-.696-.576-1.263-1.282-1.263H18.137c-1.02 0-1.845-.812-1.845-1.817 0-1.006.824-1.818 1.845-1.818h35.738c2.748 0 4.986 2.204 4.986 4.911v31.247c0 2.694-2.238 4.899-4.986 4.899ZM9.985 53.535c-1.021 0-1.846-.812-1.846-1.818V14.283c0-1.006.825-1.818 1.846-1.818 1.02 0 1.845.812 1.845 1.818v37.434c.013 1.006-.825 1.818-1.845 1.818Z" fill="#2D527C"/><path d="M42.673 47.502c-8.113 0-14.721-6.51-14.721-14.502 0-7.992 6.608-14.502 14.721-14.502 8.114 0 14.722 6.51 14.722 14.502 0 7.992-6.608 14.502-14.722 14.502Zm0-25.369c-6.085 0-11.031 4.873-11.031 10.867 0 5.994 4.946 10.867 11.031 10.867 6.085 0 11.032-4.873 11.032-10.867 0-5.994-4.947-10.867-11.032-10.867Zm0 17.428c-3.677 0-6.66-2.939-6.66-6.561s2.983-6.561 6.66-6.561 6.661 2.939 6.661 6.561-2.984 6.561-6.66 6.561Zm0-9.487c-1.636 0-2.97 1.315-2.97 2.926 0 1.611 1.334 2.926 2.97 2.926 1.636 0 2.97-1.315 2.97-2.926 0-1.611-1.334-2.926-2.97-2.926Z" fill="#F0BF5F"/><path d="M18.124 39.78h-8.14v5.892h8.14V39.78Z" fill="#CEE8FA"/><path d="M18.137 47.49H9.985c-1.021 0-1.846-.813-1.846-1.819v-5.89c0-1.006.825-1.818 1.846-1.818h8.139c1.02 0 1.845.812 1.845 1.818v5.89c.013 1.006-.811 1.818-1.832 1.818Zm-6.294-3.636h4.449v-2.256h-4.45v2.256Z" fill="#2D527C"/><path d="M18.124 20.328h-8.14v5.892h8.14v-5.892Z" fill="#CEE8FA"/><path d="M18.137 28.037H9.985c-1.021 0-1.846-.812-1.846-1.817v-5.892c0-1.005.825-1.817 1.846-1.817h8.139c1.02 0 1.845.812 1.845 1.817v5.892c.013 1.005-.811 1.817-1.832 1.817Zm-6.294-3.635h4.449v-2.256h-4.45v2.256Z" fill="#2D527C"/><path d="M33.984 43.377c-.47 0-.942-.18-1.308-.529a1.81 1.81 0 0 1 0-2.578l5.286-5.208a1.876 1.876 0 0 1 2.617 0c.72.71.72 1.87 0 2.579l-5.286 5.207a1.902 1.902 0 0 1-1.309.529ZM46.416 31.13c-.471 0-.942-.18-1.309-.528a1.81 1.81 0 0 1 0-2.578l4.947-4.872a1.876 1.876 0 0 1 2.617 0c.72.708.72 1.869 0 2.578l-4.947 4.872a1.878 1.878 0 0 1-1.308.529ZM38.84 31.04c-.472 0-.943-.18-1.31-.528l-4.854-4.782a1.81 1.81 0 0 1 0-2.578 1.876 1.876 0 0 1 2.617 0l4.855 4.782c.72.709.72 1.87 0 2.578-.354.361-.838.529-1.309.529ZM51.362 43.377c-.47 0-.942-.18-1.308-.529l-4.92-4.846a1.81 1.81 0 0 1 0-2.579 1.876 1.876 0 0 1 2.617 0l4.92 4.847c.72.71.72 1.87 0 2.578a1.901 1.901 0 0 1-1.309.529Z" fill="#F0BF5F"/></svg>
